X:23
T:Up in the Morning Early Dix.23
M:6/8
L:1/8
Q:1/4=110
S:Anon. MS dated 1811, from Dixon collection, Holton le Moor, Lincs.
R:Song
C:’Scotch’, Burns
O:England;Lincolnshire;Holton le Moor
Z:vmp.R.Greig 2010 <http://www.village-music-project.org.uk>
K:Bb
D|G2AB2c|(d>=e) fF2F|(G>A) (B/c/) (d>c) (B/A)|G3d2D|!
w:Cauld blaws the win’ frae nor-th to south an dr-ift i-s dr-iv–ing fair-ly, the
G2A B2-c|(d>=e) fF2F|(G>A) B (d>c) (B/A/)|G3d2:|!
w:Sheep is cour-ing i-n the heugh, & s-irs it’s win—ter fair-ly.
|:F|B> c B B2B|(c>d) c c3|d> e f (g>f) e|d3f2B|!
w:Now up in the morn-ings n-o for me, up in the morn–ing ear-ly; I’d
B> c B c> d c|(d>=e) f Hg2(f/e/)|d> c B (A>G) ^F| G3d2:|
w:rath-er go supp-er-less t-o my bed th-an rise in the morn–ing ear-ly
W:%
W:Ruder airs the blast amang the woods
W:The branches tirlin’ barely;
W:Amang the chimney tops it thuds,
W:An’ frost is nippin sairly.
W:Now up in the mornings, no for me,
W:Up in the morning early,
W:To sit a’ the night wad better agree,
W:Than rise in the morning early.
W:%
W:The sun peeps o’er the southlan hills
W:Like ony timorous carlie,
W:Just blinksa wee, then sinks again
W:An that we fin’ severely;
W:Now up in the morning’s no for me,
W:Up in the morning early
W:When snaw blaws in to the chimley cheek
W:Wha’d rise in the morning early.
W:%
W:%
W:Nae linties lilt on hedge or bush
W:Poor things they suffer sairly;
W:In caudrife quarters a’ the night
W:A’ day they feed but sparely
W:Now up in the morning’s no for me,
W:Up in the morning early
W:No fate can be war’, in the winter time
W:Than rise in the morning early
W:%
W:A cosey house an’ a canty wife
W:Keep s ay a body cheerly;
W:An’ pantry stow’d wi’ meal &maut
W:It answers unco rarely.
W:But up in the Morning, Na Na Na
W:Up in the morning early
W:The gowans maun glint on bank an’ bra’
W:When I rise in the morning early

